app/images/dist/clap.svg

<svg width="24" height="24" viewBox="0 0 24 24" fill="none" xmlns="http://www.w3.org/2000/svg">
<path d="M14.9691 1.28994L15.3231 0.936888L15.3231 0.936887L14.9691 1.28994ZM14.9691 2.70994L15.3224 3.06379L15.3231 3.06299L14.9691 2.70994ZM13.5531 1.28994L13.9072 1.64299V1.64299L13.5531 1.28994ZM9.56439 5.28994L9.21033 4.93689L8.84531 5.30294L9.22333 5.65556L9.56439 5.28994ZM10.5017 7.16994L10.0045 7.22256L10.1146 8.26294L10.855 7.52379L10.5017 7.16994ZM3.50154 18.3399L4.00039 18.3738L4.00154 18.3569V18.3399H3.50154ZM3.50154 14.2399L3.00154 14.2335V14.2399H3.50154ZM3.50154 18.5599L3.15032 18.9158L4.08976 19.843L4.00039 18.5261L3.50154 18.5599ZM2.87331 17.9399L2.50593 18.2791L2.51382 18.2876L2.5221 18.2958L2.87331 17.9399ZM2.00577 15.5099L2.50489 15.5395L2.50577 15.5247V15.5099H2.00577ZM2.84715 8.60391L2.39586 8.38864H2.39586L2.84715 8.60391ZM3.73089 6.16994L4.22332 6.2566L4.22355 6.2553L3.73089 6.16994ZM4.17962 3.57994L3.68808 3.48809L3.68696 3.49459L4.17962 3.57994ZM4.75798 3.17994L4.66919 3.67199L4.67851 3.67368L4.6879 3.675L4.75798 3.17994ZM5.99448 4.27994L6.48251 4.17119L6.48035 4.16148L6.4778 4.15186L5.99448 4.27994ZM5.99448 4.68994L5.50645 4.58119L5.50371 4.5935L5.50159 4.60592L5.99448 4.68994ZM4.99731 10.5399L5.36114 10.8829L5.4648 10.7729L5.4902 10.624L4.99731 10.5399ZM20.294 13.0899L20.6481 13.443L21.4987 12.5899H20.294V13.0899ZM18.2997 15.0899L18.6502 15.4465L18.6537 15.443L18.2997 15.0899ZM20.2442 13.0899L19.8901 12.7369L19.0395 13.5899H20.2442V13.0899ZM21.6602 14.5099L22.0139 14.8633L22.0142 14.863L21.6602 14.5099ZM16.4848 19.6899L16.1311 19.3365L16.1307 19.3369L16.4848 19.6899ZM15.3779 20.5299L15.6216 20.9665L15.6226 20.966L15.3779 20.5299ZM12.2967 22.2499L12.5381 22.6878L12.5404 22.6865L12.2967 22.2499ZM9.39487 22.9999V23.4999H9.39571L9.39487 22.9999ZM9.34501 22.9999L9.34456 23.4999H9.34501V22.9999ZM7.23099 22.1199L7.58526 21.7671L7.58373 21.7656L7.23099 22.1199ZM5.87482 20.7699L5.50887 21.1106L5.51534 21.1176L5.52208 21.1243L5.87482 20.7699ZM4.99731 18.3399L5.49652 18.3679L5.49731 18.354V18.3399H4.99731ZM5.8487 11.3965L6.30037 11.611L5.8487 11.3965ZM6.72243 8.99994L7.21457 9.08828L7.21514 9.08498L6.72243 8.99994ZM7.17116 6.39994L6.67962 6.30809L6.67844 6.3149L7.17116 6.39994ZM7.74952 5.99994L7.66072 6.49202L7.66544 6.49282L7.74952 5.99994ZM8.98602 7.44994H9.48606L9.48598 7.44362L8.98602 7.44994ZM8.98602 11.6599H8.48602V12.8649L9.33914 12.0139L8.98602 11.6599ZM16.5446 4.11994L16.8978 4.47393L16.8987 4.47299L16.5446 4.11994ZM18.2198 4.57006L17.7367 4.69913V4.69913L18.2198 4.57006ZM17.9606 5.53994L18.3143 5.89338L18.3147 5.89299L17.9606 5.53994ZM13.3138 10.1899L12.9601 9.83651L12.9597 9.83689L13.3138 10.1899ZM13.3138 10.8999L13.6678 10.5469H13.6678L13.3138 10.8999ZM14.0218 10.8999L13.6677 10.5469L14.0218 10.8999ZM19.3168 5.58994L19.6709 5.943L19.6723 5.94154L19.3168 5.58994ZM20.7328 5.58994L20.3773 5.94154L20.3777 5.94194L20.7328 5.58994ZM20.7328 6.99994L21.0862 7.35367L21.0879 7.35194L20.7328 6.99994ZM15.4378 12.2899L15.7904 12.6444L15.7912 12.6437L15.4378 12.2899ZM15.4378 12.9999L15.0852 13.3545L15.0873 13.3565L15.4378 12.9999ZM16.1358 12.9999L16.4863 13.3565L16.489 13.3538L16.1358 12.9999ZM20.294 8.84994L20.6472 9.20385L20.6495 9.20154L20.294 8.84994ZM21.71 8.84994L21.3545 9.20154L21.3549 9.20194L21.71 8.84994ZM21.71 10.2599L22.0641 10.613L22.0651 10.6119L21.71 10.2599ZM17.6017 14.3799L17.9543 14.7344L17.9557 14.733L17.6017 14.3799ZM17.6017 15.0899L17.249 15.4445L17.2511 15.4465L17.6017 15.0899ZM14.615 1.64299C14.8115 1.83997 14.8115 2.15991 14.615 2.35689L15.3231 3.06299C15.9088 2.47573 15.9088 1.52416 15.3231 0.936888L14.615 1.64299ZM13.9072 1.64299C14.1028 1.4468 14.4194 1.4468 14.615 1.643L15.3231 0.936887C14.7368 0.348837 13.7854 0.348837 13.199 0.936888L13.9072 1.64299ZM9.91844 5.64299L13.9072 1.64299L13.199 0.936888L9.21033 4.93689L9.91844 5.64299ZM10.999 7.11732C10.9102 6.27826 10.5219 5.49938 9.90544 4.92432L9.22333 5.65556C9.66344 6.06611 9.94101 6.62258 10.0045 7.22256L10.999 7.11732ZM14.6158 2.3561L10.1485 6.8161L10.855 7.52379L15.3224 3.06379L14.6158 2.3561ZM4.00154 18.3399V14.2399H3.00154V18.3399H4.00154ZM4.00039 18.5261C3.99695 18.4754 3.99695 18.4245 4.00039 18.3738L3.00268 18.3061C2.99618 18.4019 2.99618 18.498 3.00268 18.5938L4.00039 18.5261ZM2.5221 18.2958L3.15032 18.9158L3.85275 18.2041L3.22453 17.5841L2.5221 18.2958ZM1.50664 15.4804C1.44568 16.5106 1.80642 17.5214 2.50593 18.2791L3.24069 17.6008C2.72587 17.0431 2.45997 16.2987 2.50489 15.5395L1.50664 15.4804ZM1.50577 11.4099V15.5099H2.50577V11.4099H1.50577ZM2.39586 8.38864C1.97207 9.27709 1.50577 10.2378 1.50577 11.4099H2.50577C2.50577 10.4978 2.86147 9.73522 3.29843 8.81917L2.39586 8.38864ZM3.23845 6.08329C3.08983 6.92787 2.75296 7.64002 2.39586 8.38864L3.29843 8.81917C3.64987 8.08241 4.04778 7.25413 4.22332 6.2566L3.23845 6.08329ZM3.68696 3.49459L3.23823 6.08459L4.22355 6.2553L4.67228 3.6653L3.68696 3.49459ZM4.84678 2.68789C4.30537 2.59019 3.78886 2.94902 3.68813 3.4881L4.67111 3.67179C4.67131 3.67072 4.67138 3.67101 4.67099 3.67161C4.67079 3.67191 4.67076 3.67184 4.67102 3.67166C4.67128 3.67148 4.67118 3.67164 4.67046 3.6718C4.6694 3.67204 4.66867 3.6719 4.66919 3.67199L4.84678 2.68789ZM6.4778 4.15186C6.27213 3.37578 5.62283 2.79739 4.82807 2.68488L4.6879 3.675C5.08335 3.73099 5.40811 4.01913 5.51117 4.40803L6.4778 4.15186ZM6.48251 4.79869C6.52856 4.59207 6.52856 4.37781 6.48251 4.17119L5.50645 4.38869C5.52058 4.45207 5.52058 4.51781 5.50645 4.58119L6.48251 4.79869ZM5.4902 10.624L6.48738 4.77396L5.50159 4.60592L4.50441 10.4559L5.4902 10.624ZM4.00149 14.2464C4.01775 12.9936 4.50322 11.793 5.36114 10.8829L4.63348 10.197C3.60346 11.2896 3.02108 12.7305 3.00158 14.2335L4.00149 14.2464ZM19.94 12.7369L17.9456 14.7369L18.6537 15.443L20.6481 13.443L19.94 12.7369ZM20.2442 13.5899H20.294V12.5899H20.2442V13.5899ZM22.0142 12.7369C21.4278 12.1488 20.4765 12.1488 19.8901 12.7369L20.5982 13.443C20.7939 13.2468 21.1105 13.2468 21.3061 13.443L22.0142 12.7369ZM22.0142 14.863C22.5998 14.2757 22.5998 13.3242 22.0142 12.7369L21.3061 13.443C21.5025 13.64 21.5025 13.9599 21.3061 14.1569L22.0142 14.863ZM16.8385 20.0433L22.0139 14.8633L21.3065 14.1565L16.1311 19.3365L16.8385 20.0433ZM15.6226 20.966C16.0685 20.7158 16.4778 20.4052 16.8389 20.0429L16.1307 19.3369C15.8345 19.6341 15.4988 19.8888 15.1333 20.0939L15.6226 20.966ZM12.5404 22.6865L15.6216 20.9665L15.1342 20.0934L12.053 21.8134L12.5404 22.6865ZM9.39571 23.4999C10.4946 23.4981 11.5753 23.2187 12.5381 22.6878L12.0552 21.8121C11.2397 22.2619 10.3245 22.4984 9.39402 22.4999L9.39571 23.4999ZM9.34501 23.4999H9.39487V22.4999H9.34501V23.4999ZM6.87671 22.4728C7.53077 23.1295 8.41841 23.4991 9.34456 23.4999L9.34545 22.4999C8.68533 22.4994 8.05217 22.2359 7.58526 21.7671L6.87671 22.4728ZM5.52208 21.1243L6.87824 22.4743L7.58373 21.7656L6.22757 20.4156L5.52208 21.1243ZM4.49809 18.3119C4.44021 19.3438 4.80518 20.3548 5.50887 21.1106L6.24078 20.4292C5.72289 19.873 5.45387 19.1284 5.49652 18.3679L4.49809 18.3119ZM4.49731 14.2399V18.3399H5.49731V14.2399H4.49731ZM5.39702 11.1821C4.96989 12.0817 4.49731 13.0599 4.49731 14.2399H5.49731C5.49731 13.3195 5.85952 12.5395 6.30037 11.611L5.39702 11.1821ZM6.23029 8.91161C6.08325 9.7308 5.75137 10.4357 5.39702 11.1821L6.30037 11.611C6.64834 10.8781 7.04049 10.0581 7.21456 9.08827L6.23029 8.91161ZM6.67844 6.3149L6.22971 8.9149L7.21514 9.08498L7.66387 6.48498L6.67844 6.3149ZM7.83832 5.50789C7.29691 5.41019 6.7804 5.76902 6.67966 6.3081L7.66265 6.49179C7.66285 6.49072 7.66292 6.49101 7.66253 6.49161C7.66232 6.49191 7.6623 6.49184 7.66256 6.49166C7.66282 6.49148 7.66271 6.49164 7.662 6.4918C7.66094 6.49204 7.66021 6.4919 7.66072 6.49199L7.83832 5.50789ZM9.48598 7.44362C9.47385 6.48403 8.77961 5.66845 7.8336 5.50706L7.66544 6.49282C8.13375 6.57271 8.48 6.97727 8.48606 7.45626L9.48598 7.44362ZM9.48602 11.6599V7.44994H8.48602V11.6599H9.48602ZM16.1915 3.76595L8.63291 11.306L9.33914 12.0139L16.8978 4.47393L16.1915 3.76595ZM17.6415 3.37719C17.1229 3.23782 16.5697 3.38666 16.1906 3.76689L16.8987 4.47299C17.0254 4.3459 17.2096 4.29661 17.382 4.34293L17.6415 3.37719ZM18.7028 4.441C18.5643 3.92244 18.1601 3.51653 17.6415 3.37719L17.382 4.34293C17.5545 4.38928 17.6901 4.52468 17.7367 4.69913L18.7028 4.441ZM18.3147 5.89299C18.6937 5.51292 18.8414 4.95945 18.7028 4.44099L17.7367 4.69913C17.7834 4.87368 17.7335 5.05964 17.6066 5.18689L18.3147 5.89299ZM13.6675 10.5434L18.3143 5.89337L17.607 5.18651L12.9601 9.83651L13.6675 10.5434ZM13.6678 10.5469C13.667 10.5461 13.6672 10.5461 13.6673 10.5464C13.6673 10.5464 13.6671 10.5459 13.6671 10.5449C13.6671 10.544 13.6673 10.5435 13.6673 10.5435C13.6672 10.5438 13.667 10.5438 13.6678 10.543L12.9597 9.83689C12.5696 10.2281 12.5696 10.8618 12.9597 11.253L13.6678 10.5469ZM13.6677 10.5469H13.6678L12.9597 11.253C13.3506 11.645 13.9849 11.645 14.3758 11.253L13.6677 10.5469ZM18.9627 5.23689L13.6677 10.5469L14.3758 11.253L19.6708 5.94299L18.9627 5.23689ZM20.0248 4.79414C19.6251 4.79414 19.2423 4.95422 18.9613 5.23834L19.6723 5.94154C19.7658 5.84704 19.8927 5.79414 20.0248 5.79414V4.79414ZM21.0883 5.23834C20.8073 4.95422 20.4245 4.79414 20.0248 4.79414V5.79414C20.1569 5.79414 20.2838 5.84704 20.3773 5.94154L21.0883 5.23834ZM21.0879 7.35194C21.6677 6.767 21.6677 5.82288 21.0879 5.23794L20.3777 5.94194C20.5711 6.13708 20.5711 6.45281 20.3777 6.64794L21.0879 7.35194ZM15.7912 12.6437L21.0862 7.35366L20.3794 6.64622L15.0844 11.9362L15.7912 12.6437ZM15.7903 12.6449L15.7904 12.6444L15.0852 11.9354C14.8963 12.1233 14.7903 12.3788 14.7903 12.6449H15.7903ZM15.7904 12.6454L15.7903 12.6449H14.7903C14.7903 12.9111 14.8963 13.1666 15.0852 13.3544L15.7904 12.6454ZM15.7853 12.6434C15.7848 12.6439 15.7851 12.6435 15.786 12.6431C15.7867 12.6428 15.7869 12.6429 15.7868 12.6429C15.7867 12.6429 15.7869 12.6428 15.7875 12.6431C15.7885 12.6435 15.7888 12.6439 15.7883 12.6434L15.0873 13.3565C15.4757 13.7383 16.0979 13.7383 16.4863 13.3565L15.7853 12.6434ZM19.9408 8.49604L15.7826 12.646L16.489 13.3538L20.6472 9.20385L19.9408 8.49604ZM21.002 8.05414C20.6024 8.05414 20.2195 8.21422 19.9385 8.49834L20.6495 9.20154C20.743 9.10704 20.8699 9.05414 21.002 9.05414V8.05414ZM22.0655 8.49834C21.7845 8.21422 21.4017 8.05414 21.002 8.05414V9.05414C21.1341 9.05414 21.2611 9.10704 21.3545 9.20154L22.0655 8.49834ZM22.0651 10.6119C22.645 10.027 22.645 9.08288 22.0651 8.49794L21.3549 9.20194C21.5484 9.39708 21.5484 9.71281 21.3549 9.90794L22.0651 10.6119ZM17.9557 14.733L22.0641 10.613L21.356 9.90689L17.2476 14.0269L17.9557 14.733ZM17.9542 14.7349L17.9543 14.7344L17.249 14.0254C17.0602 14.2133 16.9542 14.4688 16.9542 14.7349H17.9542ZM17.9543 14.7354L17.9542 14.7349H16.9542C16.9542 15.0011 17.0602 15.2566 17.249 15.4444L17.9543 14.7354ZM17.9492 14.7334C17.9486 14.7339 17.949 14.7335 17.9499 14.7331C17.9505 14.7328 17.9508 14.7329 17.9507 14.7329C17.9505 14.7329 17.9508 14.7328 17.9514 14.7331C17.9523 14.7335 17.9527 14.7339 17.9522 14.7334L17.2511 15.4465C17.6396 15.8283 18.2618 15.8283 18.6502 15.4465L17.9492 14.7334Z" fill="#DC143C"/>
</svg>

<svg width="24" height="24" fill="none" xmlns="http://www.w3.org/2000/svg"><path d="m14.97 1.29.353-.353-.354.353Zm0 1.42.352.354.001-.001-.354-.353Zm-1.417-1.42.354.353-.354-.353Zm-3.989 4-.354-.353-.365.366.378.353.341-.366Zm.938 1.88-.498.053.11 1.04.741-.74-.353-.353Zm-7 11.17.498.034.002-.017v-.017h-.5Zm0-4.1-.5-.007v.007h.5Zm0 4.32-.352.356.94.927L4 18.526l-.498.034Zm-.629-.62-.367.34.008.008.008.008.351-.356Zm-.867-2.43.499.03v-.03h-.5Zm.841-6.906-.451-.215.451.215Zm.884-2.434.492.087v-.002l-.492-.085Zm.449-2.59-.492-.092-.001.007.493.085Zm.578-.4-.089.492.01.002.009.001.07-.495Zm1.236 1.1.489-.109-.003-.01-.002-.01-.484.129Zm0 .41-.488-.109-.002.012-.002.013.492.084Zm-.997 5.85.364.343.104-.11.025-.149-.493-.084Zm15.297 2.55.354.353.85-.853h-1.204v.5Zm-1.994 2 .35.357.004-.004-.354-.353Zm1.944-2-.354-.353-.85.853h1.204v-.5Zm1.416 1.42.354.353-.354-.353Zm-5.175 5.18-.354-.354.354.354Zm-1.107.84.244.436-.244-.436Zm-3.081 1.72.241.438.002-.002-.243-.436ZM9.395 23v.5-.5Zm-.05 0v.5-.5Zm-2.114-.88.354-.353-.001-.001-.353.354Zm-1.356-1.35-.366.34.006.008.007.006.353-.354Zm-.878-2.43.5.028v-.028h-.5Zm.852-6.944.451.215-.451-.215ZM6.722 9l.493.088v-.003L6.722 9Zm.45-2.6-.492-.092-.002.007.493.085ZM7.75 6l-.09.492h.005L7.75 6Zm1.236 1.45h.5v-.006l-.5.006Zm0 4.21h-.5v1.205l.853-.851-.353-.354Zm7.559-7.54.353.354v-.001l-.353-.353Zm1.675.45-.483.13.483-.13Zm-.26.97.354.353-.353-.353Zm-4.646 4.65-.354-.353.354.353Zm0 .71.354-.353-.354.353Zm.708 0-.354-.353.354.353Zm5.295-5.31.354.353.001-.001-.355-.352Zm1.416 0-.356.352.356-.352Zm0 1.41.353.354.002-.002L20.733 7Zm-5.295 5.29.352.354h.001l-.353-.354Zm0 .71-.353.354.002.003.35-.357Zm.698 0 .35.357.003-.003-.353-.354Zm4.158-4.15.353.354.003-.002-.356-.352Zm1.416 0-.355.352.355-.352Zm0 1.41.354.353.001-.001-.355-.352Zm-4.108 4.12.352.354.002-.001-.354-.353Zm0 .71-.353.354.002.002.35-.356ZM14.615 1.643a.506.506 0 0 1 0 .714l.708.706a1.506 1.506 0 0 0 0-2.126l-.708.706Zm-.708 0a.5.5 0 0 1 .708 0l.708-.706a1.5 1.5 0 0 0-2.124 0l.708.706Zm-3.989 4 3.99-4-.709-.706-3.989 4 .708.706ZM11 7.117a3.503 3.503 0 0 0-1.094-2.193l-.682.732c.44.41.718.967.781 1.567L11 7.117Zm3.617-4.76-4.467 4.46.706.707 4.467-4.46-.706-.708ZM4.002 18.34v-4.1h-1v4.1h1ZM4 18.526a1.125 1.125 0 0 1 0-.152l-.997-.068a2.125 2.125 0 0 0 0 .288L4 18.526Zm-1.478-.23.628.62.703-.712-.628-.62-.703.712ZM1.507 15.48a3.796 3.796 0 0 0 .999 2.8l.735-.68a2.796 2.796 0 0 1-.736-2.06l-.998-.06Zm-.001-4.07v4.1h1v-4.1h-1Zm.89-3.021c-.424.888-.89 1.849-.89 3.02h1c0-.911.355-1.674.792-2.59l-.902-.43Zm.842-2.306c-.148.845-.485 1.557-.842 2.306l.902.43c.352-.737.75-1.565.925-2.562l-.985-.174Zm.449-2.588-.449 2.59.986.17.448-2.59-.985-.17Zm1.16-.807a.999.999 0 0 0-1.159.8l.983.184c0-.001 0-.001 0 0h-.002l.178-.984Zm1.63 1.464a1.997 1.997 0 0 0-1.649-1.467l-.14.99c.395.056.72.344.823.733l.967-.256Zm.006.647a1.446 1.446 0 0 0 0-.628l-.977.218a.442.442 0 0 1 0 .192l.977.218Zm-.993 5.825.997-5.85-.985-.168-.998 5.85.986.168Zm-1.489 3.622a4.998 4.998 0 0 1 1.36-3.363l-.728-.686a5.998 5.998 0 0 0-1.631 4.037l1 .012Zm15.939-1.51-1.994 2 .708.707 1.994-2-.708-.706Zm.304.854h.05v-1h-.05v1Zm1.77-.853a1.5 1.5 0 0 0-2.124 0l.708.706a.5.5 0 0 1 .708 0l.708-.706Zm0 2.126a1.506 1.506 0 0 0 0-2.126l-.708.706a.506.506 0 0 1 0 .714l.708.706Zm-5.175 5.18 5.175-5.18-.707-.707-5.176 5.18.707.707Zm-1.216.923a5.52 5.52 0 0 0 1.216-.923l-.708-.706a4.556 4.556 0 0 1-.998.757l.49.872Zm-3.083 1.72 3.082-1.72-.488-.873-3.081 1.72.487.873Zm-3.144.814a6.53 6.53 0 0 0 3.142-.812l-.483-.876c-.815.45-1.73.686-2.661.688l.002 1Zm-.051 0h.05v-1h-.05v1Zm-2.468-1.027A3.487 3.487 0 0 0 9.345 23.5v-1c-.66 0-1.293-.264-1.76-.733l-.708.706Zm-1.355-1.349 1.356 1.35.706-.708-1.356-1.35-.706.708Zm-1.024-2.812a3.795 3.795 0 0 0 1.01 2.799l.733-.682a2.795 2.795 0 0 1-.744-2.061l-.999-.056Zm0-4.072v4.1h1v-4.1h-1Zm.899-3.058c-.427.9-.9 1.878-.9 3.058h1c0-.92.363-1.7.803-2.629l-.903-.429Zm.833-2.27c-.147.819-.479 1.524-.833 2.27l.903.429c.348-.733.74-1.553.915-2.523l-.985-.176Zm.448-2.597-.448 2.6.985.17.449-2.6-.986-.17Zm1.16-.807a.999.999 0 0 0-1.158.8l.983.184c0-.001 0-.001 0 0H7.66l.177-.984Zm1.648 1.936a1.989 1.989 0 0 0-1.652-1.937l-.169.986c.469.08.815.484.821.963l1-.012Zm0 4.216V7.45h-1v4.21h1Zm6.706-7.894-7.56 7.54.707.708 7.559-7.54-.706-.708Zm1.45-.389a1.5 1.5 0 0 0-1.451.39l.708.706a.5.5 0 0 1 .483-.13l.26-.966Zm1.06 1.064a1.503 1.503 0 0 0-1.06-1.064l-.26.966a.503.503 0 0 1 .355.356l.966-.258Zm-.387 1.452c.379-.38.526-.934.388-1.452l-.966.258a.506.506 0 0 1-.13.488l.708.706Zm-4.648 4.65 4.647-4.65-.707-.706-4.647 4.65.707.706Zm0 .004v-.004l-.707-.706a1.003 1.003 0 0 0 0 1.416l.708-.706Zm0 0-.707.706a1 1 0 0 0 1.416 0l-.708-.706Zm5.296-5.31-5.295 5.31.708.706 5.295-5.31-.708-.706Zm1.062-.443c-.4 0-.783.16-1.064.444l.711.704a.496.496 0 0 1 .353-.148v-1Zm1.063.444a1.496 1.496 0 0 0-1.063-.444v1c.132 0 .259.053.352.148l.711-.704Zm0 2.114c.58-.585.58-1.53 0-2.114l-.71.704a.502.502 0 0 1 0 .706l.71.704Zm-5.297 5.292 5.295-5.29-.707-.708-5.295 5.29.707.708Zm0 0-.706-.709a1 1 0 0 0-.295.71h1Zm0 .001h-1a1 1 0 0 0 .294.71l.705-.71Zm-.006-.002h.003l-.7.713a.998.998 0 0 0 1.398 0l-.7-.713Zm4.156-4.147-4.158 4.15.706.708 4.158-4.15-.706-.708Zm1.061-.442c-.4 0-.782.16-1.063.444l.71.704a.496.496 0 0 1 .353-.148v-1Zm1.064.444a1.496 1.496 0 0 0-1.064-.444v1c.132 0 .26.053.353.148l.71-.704Zm0 2.114a1.504 1.504 0 0 0 0-2.114l-.711.704a.502.502 0 0 1 0 .706l.71.704Zm-4.11 4.121 4.108-4.12-.708-.706-4.108 4.12.708.706Zm-.002.002-.705-.71a1.001 1.001 0 0 0-.295.71h1Zm0 0h-1a1 1 0 0 0 .295.71l.705-.71Zm-.005-.002h.003l-.7.713a.998.998 0 0 0 1.398 0l-.7-.713Z" fill="#DC143C"/></svg>
